svg/emoji_u1f566.svg

<svg enable-background="new 0 0 128 128" viewBox="0 0 128 128" xmlns="http://www.w3.org/2000/svg" xmlns:xlink="http://www.w3.org/1999/xlink"><linearGradient id="c" x1="64" x2="64" y1="19.751" y2="111.99" gradientUnits="userSpaceOnUse"><stop stop-color="#ECEFF1" offset=".3212"/><stop stop-color="#B0BEC5" offset="1"/></linearGradient><circle cx="64" cy="64" r="60" fill="url(#c)"/><path d="m64.2 63.98h-0.4c-2.1 0-3.8 1.7-3.8 3.8v32.4c0 2.1 1.7 3.8 3.8 3.8h0.4c2.1 0 3.8-1.7 3.8-3.8v-32.4c0-2.09-1.7-3.8-3.8-3.8z" fill="#424242"/><path d="m63.7 64.08 0.35-0.19c1.83-1.02 2.5-3.33 1.48-5.17l-10.48-18.87c-1.02-1.83-3.33-2.5-5.17-1.48l-0.35 0.19c-1.83 1.02-2.5 3.33-1.48 5.17l10.48 18.87c1.02 1.84 3.34 2.5 5.17 1.48z" fill="#424242"/><circle cx="64" cy="64" r="7" fill="#424242"/><circle cx="64" cy="64" r="3" fill="#fff"/><g fill="#757575"><circle cx="15.89" cy="64.13" r="4"/><circle cx="63.89" cy="16.13" r="4"/><circle cx="63.89" cy="112.13" r="4"/><circle cx="111.89" cy="64.13" r="4"/></g><g opacity=".2"><path d="M64,8c30.88,0,56,25.12,56,56s-25.12,56-56,56S8,94.88,8,64S33.12,8,64,8 M64,4 C30.86,4,4,30.86,4,64s26.86,60,60,60s60-26.86,60-60S97.14,4,64,4L64,4z" fill="#424242"/></g><g display="none"><g display="inline" opacity=".3"><g opacity=".6"><circle cx="64" cy="64" r="28" fill="none" opacity=".61" stroke="#000" stroke-miterlimit="10" stroke-width=".2625"/><line x1="84" x2="84" y2="128" fill="none" opacity=".61" stroke="#000" stroke-miterlimit="10" stroke-width=".25"/><line x1="44" x2="44" y2="128" fill="none" opacity=".61" stroke="#000" stroke-miterlimit="10" stroke-width=".25"/><line x1="64" x2="64" y2="128" fill="none" opacity=".61" stroke="#000" stroke-miterlimit="10" stroke-width=".25"/><line x1="128" y1="64" y2="64" fill="none" opacity=".61" stroke="#000" stroke-miterlimit="10" stroke-width=".25"/><line x1="128" y1="44" y2="44" fill="none" opacity=".61" stroke="#000" stroke-miterlimit="10" stroke-width=".25"/><line x1="128" y1="83.75" y2="83.75" fill="none" opacity=".61" stroke="#000" stroke-miterlimit="10" stroke-width=".25"/><line x1="128" y1="128" fill="none" opacity=".61" stroke="#000" stroke-miterlimit="10" stroke-width=".25"/><line x2="128" y1="128" fill="none" opacity=".61" stroke="#000" stroke-miterlimit="10" stroke-width=".25"/><g opacity=".61"><path d="m64 4.26c32.94 0 59.74 26.8 59.74 59.74s-26.8 59.74-59.74 59.74-59.74-26.8-59.74-59.74 26.8-59.74 59.74-59.74m0-0.26c-33.14 0-60 26.86-60 60s26.86 60 60 60 60-26.86 60-60-26.86-60-60-60z"/></g><path d="m107.97 115.97h-87.94c-4.42 0-8.03-3.61-8.03-8.03v-87.91c0-4.42 3.61-8.03 8.03-8.03h87.94c4.42 0 8.03 3.61 8.03 8.03v87.91c0 4.42-3.61 8.03-8.03 8.03z" fill="none" opacity=".61" stroke="#000" stroke-miterlimit="10" stroke-width=".2578"/><path d="m99.75 124h-71.75c-4.4 0-8-3.6-8-8v-104c0-4.4 3.6-8 8-8h71.75c4.4 0 8 3.6 8 8v104c0 4.4-3.6 8-8 8z" fill="none" opacity=".61" stroke="#000" stroke-miterlimit="10" stroke-width=".2567"/><path d="M113.77,108H14.23 C8.6,108,4,103.4,4,97.77V30.28c0-5.63,4.6-10.23,10.23-10.23h99.54c5.63,0,10.23,4.6,10.23,10.23v67.48 C124,103.4,119.4,108,113.77,108z" fill="none" opacity=".61" stroke="#000" stroke-miterlimit="10" stroke-width=".2627"/></g><g opacity=".2"><defs><rect id="b" width="128" height="128" opacity=".2"/></defs><clipPath id="a"><use xlink:href="#b"/></clipPath><g clip-path="url(#a)"><g fill="none" stroke="#000" stroke-miterlimit="10" stroke-width=".25"><line x1="-28" x2="-28" y1="160" y2="-32"/><line x1="-24" x2="-24" y1="160" y2="-32"/><line x1="-20" x2="-20" y1="160" y2="-32"/><line x1="-16" x2="-16" y1="160" y2="-32"/><line x1="-12" x2="-12" y1="160" y2="-32"/><line x1="-8" x2="-8" y1="160" y2="-32"/><line x1="-4" x2="-4" y1="160" y2="-32"/><line y1="160" y2="-32"/><line x1="4" x2="4" y1="160" y2="-32"/><line x1="8" x2="8" y1="160" y2="-32"/><line x1="12" x2="12" y1="160" y2="-32"/><line x1="16" x2="16" y1="160" y2="-32"/><line x1="20" x2="20" y1="160" y2="-32"/><line x1="24" x2="24" y1="160" y2="-32"/><line x1="28" x2="28" y1="160" y2="-32"/><line x1="32" x2="32" y1="160" y2="-32"/><line x1="36" x2="36" y1="160" y2="-32"/><line x1="40" x2="40" y1="160" y2="-32"/><line x1="44" x2="44" y1="160" y2="-32"/><line x1="48" x2="48" y1="160" y2="-32"/><line x1="52" x2="52" y1="160" y2="-32"/><line x1="56" x2="56" y1="160" y2="-32"/><line x1="60" x2="60" y1="160" y2="-32"/><line x1="64" x2="64" y1="160" y2="-32"/><line x1="68" x2="68" y1="160" y2="-32"/><line x1="72" x2="72" y1="160" y2="-32"/><line x1="76" x2="76" y1="160" y2="-32"/><line x1="80" x2="80" y1="160" y2="-32"/><line x1="84" x2="84" y1="160" y2="-32"/><line x1="88" x2="88" y1="160" y2="-32"/><line x1="92" x2="92" y1="160" y2="-32"/><line x1="96" x2="96" y1="160" y2="-32"/><line x1="100" x2="100" y1="160" y2="-32"/><line x1="104" x2="104" y1="160" y2="-32"/><line x1="108" x2="108" y1="160" y2="-32"/><line x1="112" x2="112" y1="160" y2="-32"/><line x1="116" x2="116" y1="160" y2="-32"/><line x1="120" x2="120" y1="160" y2="-32"/><line x1="124" x2="124" y1="160" y2="-32"/><line x1="128" x2="128" y1="160" y2="-32"/><line x1="132" x2="132" y1="160" y2="-32"/><line x1="136" x2="136" y1="160" y2="-32"/><line x1="137" x2="137" y1="166.05" y2="-25.95"/><line x1="144" x2="144" y1="160" y2="-32"/><line x1="148" x2="148" y1="160" y2="-32"/><line x1="152" x2="152" y1="160" y2="-32"/><line x1="156" x2="156" y1="160" y2="-32"/></g><g fill="none" stroke="#000" stroke-miterlimit="10" stroke-width=".25"><line x1="-32" x2="160" y1="-28" y2="-28"/><line x1="-32" x2="160" y1="-24" y2="-24"/><line x1="-32" x2="160" y1="-20" y2="-20"/><line x1="-32" x2="160" y1="-16" y2="-16"/><line x1="-32" x2="160" y1="-12" y2="-12"/><line x1="-32" x2="160" y1="-8" y2="-8"/><line x1="-32" x2="160" y1="-4" y2="-4"/><line x1="-32" x2="160"/><line x1="-32" x2="160" y1="4" y2="4"/><line x1="-32" x2="160" y1="8" y2="8"/><line x1="-32" x2="160" y1="12" y2="12"/><line x1="-32" x2="160" y1="16" y2="16"/><line x1="-32" x2="160" y1="20" y2="20"/><line x1="-32" x2="160" y1="24" y2="24"/><line x1="-32" x2="160" y1="28" y2="28"/><line x1="-32" x2="160" y1="32" y2="32"/><line x1="-32" x2="160" y1="36" y2="36"/><line x1="-32" x2="160" y1="40" y2="40"/><line x1="-32" x2="160" y1="44" y2="44"/><line x1="-32" x2="160" y1="48" y2="48"/><line x1="-32" x2="160" y1="52" y2="52"/><line x1="-32" x2="160" y1="56" y2="56"/><line x1="-32" x2="160" y1="60" y2="60"/><line x1="-32" x2="160" y1="64" y2="64"/><line x1="-32" x2="160" y1="68" y2="68"/><line x1="-32" x2="160" y1="72" y2="72"/><line x1="-32" x2="160" y1="76" y2="76"/><line x1="-32" x2="160" y1="80" y2="80"/><line x1="-32" x2="160" y1="84" y2="84"/><line x1="-32" x2="160" y1="88" y2="88"/><line x1="-32" x2="160" y1="92" y2="92"/><line x1="-32" x2="160" y1="96" y2="96"/><line x1="-32" x2="160" y1="100" y2="100"/><line x1="-32" x2="160" y1="104" y2="104"/><line x1="-32" x2="160" y1="108" y2="108"/><line x1="-32" x2="160" y1="112" y2="112"/><line x1="-32" x2="160" y1="116" y2="116"/><line x1="-32" x2="160" y1="120" y2="120"/><line x1="-32" x2="160" y1="124" y2="124"/><line x1="-32" x2="160" y1="128" y2="128"/><line x1="-32" x2="160" y1="132" y2="132"/><line x1="-32" x2="160" y1="136" y2="136"/><line x1="-32" x2="160" y1="140" y2="140"/><line x1="-32" x2="160" y1="144" y2="144"/><line x1="-32" x2="160" y1="148" y2="148"/><line x1="-32" x2="160" y1="152" y2="152"/><line x1="-32" x2="160" y1="156" y2="156"/></g><path d="m159.75-31.75v191.5h-191.5v-191.5h191.5m0.25-0.25h-192v192h192v-192z"/></g></g><g fill="#F44336"><rect width="4" height="128" opacity=".3"/><rect x="124" width="4" height="128" opacity=".3"/><rect transform="matrix(-1.837e-16 1 -1 -1.837e-16 66 -62)" x="62" y="-58" width="4" height="120" opacity=".3"/><rect transform="matrix(-1.837e-16 1 -1 -1.837e-16 190 62)" x="62" y="66" width="4" height="120" opacity=".3"/></g></g></g></svg>

<svg width="128" height="128" style="enable-background:new 0 0 128 128;" xmlns="http://www.w3.org/2000/svg" xmlns:xlink="http://www.w3.org/1999/xlink">
  <g id="图层_3">
    <g>
      <linearGradient id="SVGID_1_" gradientUnits="userSpaceOnUse" x1="64" x2="64" y1="19.7506" y2="111.9851">
        <stop offset="0.3212" style="stop-color:#ECEFF1"/>
        <stop offset="1" style="stop-color:#B0BEC5"/>
      </linearGradient>
      <circle cx="64" cy="64" r="60" style="fill:url(#SVGID_1_);"/>
      <path d="M64.2,63.98h-0.4c-2.1,0-3.8,1.7-3.8,3.8l0,32.4c0,2.1,1.7,3.8,3.8,3.8h0.4c2.1,0,3.8-1.7,3.8-3.8 v-32.4C68,65.69,66.3,63.98,64.2,63.98z" style="fill:#424242;"/>
      <path d="M63.7,64.08l0.35-0.19c1.83-1.02,2.5-3.33,1.48-5.17L55.05,39.85c-1.02-1.83-3.33-2.5-5.17-1.48 l-0.35,0.19c-1.83,1.02-2.5,3.33-1.48,5.17L58.53,62.6C59.55,64.44,61.87,65.1,63.7,64.08z" style="fill:#424242;"/>
      <circle cx="64" cy="64" r="7" style="fill:#424242;"/>
      <circle cx="64" cy="64" r="3" style="fill:#FFFFFF;"/>
      <g>
        <circle cx="15.89" cy="64.13" r="4" style="fill:#757575;"/>
        <circle cx="63.89" cy="16.13" r="4" style="fill:#757575;"/>
        <circle cx="63.89" cy="112.13" r="4" style="fill:#757575;"/>
        <circle cx="111.89" cy="64.13" r="4" style="fill:#757575;"/>
      </g>
      <g style="opacity:0.2;">
        <path d="M64,8c30.88,0,56,25.12,56,56s-25.12,56-56,56S8,94.88,8,64S33.12,8,64,8 M64,4 C30.86,4,4,30.86,4,64s26.86,60,60,60s60-26.86,60-60S97.14,4,64,4L64,4z" style="fill:#424242;"/>
      </g>
    </g>
  </g>
  <g id="Layer_2_x5F_复制" style="display:none;">
    <g style="display:inline;opacity:0.3;">
      <g style="opacity:0.6;">
        <circle cx="64" cy="64" r="28" style="opacity:0.61;fill:none;stroke:#000000;stroke-width:0.2625;stroke-miterlimit:10;"/>
        <line style="opacity:0.61;fill:none;stroke:#000000;stroke-width:0.25;stroke-miterlimit:10;" x1="84" x2="84" y1="0" y2="128"/>
        <line style="opacity:0.61;fill:none;stroke:#000000;stroke-width:0.25;stroke-miterlimit:10;" x1="44" x2="44" y1="0" y2="128"/>
        <line style="opacity:0.61;fill:none;stroke:#000000;stroke-width:0.25;stroke-miterlimit:10;" x1="64" x2="64" y1="0" y2="128"/>
        <line style="opacity:0.61;fill:none;stroke:#000000;stroke-width:0.25;stroke-miterlimit:10;" x1="128" x2="0" y1="64" y2="64"/>
        <line style="opacity:0.61;fill:none;stroke:#000000;stroke-width:0.25;stroke-miterlimit:10;" x1="128" x2="0" y1="44" y2="44"/>
        <line style="opacity:0.61;fill:none;stroke:#000000;stroke-width:0.25;stroke-miterlimit:10;" x1="128" x2="0" y1="83.75" y2="83.75"/>
        <line style="opacity:0.61;fill:none;stroke:#000000;stroke-width:0.25;stroke-miterlimit:10;" x1="128" x2="0" y1="128" y2="0"/>
        <line style="opacity:0.61;fill:none;stroke:#000000;stroke-width:0.25;stroke-miterlimit:10;" x1="0" x2="128" y1="128" y2="0"/>
        <g style="opacity:0.61;">
          <path d="M64,4.26c32.94,0,59.74,26.8,59.74,59.74S96.94,123.74,64,123.74S4.26,96.94,4.26,64S31.06,4.26,64,4.26 M64,4 C30.86,4,4,30.86,4,64c0,33.14,26.86,60,60,60c33.14,0,60-26.86,60-60C124,30.86,97.14,4,64,4L64,4z"/>
        </g>
        <path d="M107.97,115.97H20.03 c-4.42,0-8.03-3.61-8.03-8.03V20.03c0-4.42,3.61-8.03,8.03-8.03h87.94c4.42,0,8.03,3.61,8.03,8.03v87.91 C116,112.36,112.39,115.97,107.97,115.97z" style="opacity:0.61;fill:none;stroke:#000000;stroke-width:0.2578;stroke-miterlimit:10;"/>
        <path d="M99.75,124H28 c-4.4,0-8-3.6-8-8V12c0-4.4,3.6-8,8-8h71.75c4.4,0,8,3.6,8,8v104C107.75,120.4,104.15,124,99.75,124z" style="opacity:0.61;fill:none;stroke:#000000;stroke-width:0.2567;stroke-miterlimit:10;"/>
        <path d="M113.77,108H14.23 C8.6,108,4,103.4,4,97.77V30.28c0-5.63,4.6-10.23,10.23-10.23h99.54c5.63,0,10.23,4.6,10.23,10.23v67.48 C124,103.4,119.4,108,113.77,108z" style="opacity:0.61;fill:none;stroke:#000000;stroke-width:0.2627;stroke-miterlimit:10;"/>
      </g>
      <g>
        <g style="opacity:0.2;">
          <defs>
            <rect id="SVGID_2_" height="128" style="opacity:0.2;" width="128"/>
          </defs>
          <clipPath id="SVGID_3_">
            <use style="overflow:visible;" xlink:href="#SVGID_2_"/>
          </clipPath>
          <g style="clip-path:url(#SVGID_3_);">
            <g>
              <line style="fill:none;stroke:#000000;stroke-width:0.25;stroke-miterlimit:10;" x1="-28" x2="-28" y1="160" y2="-32"/>
              <line style="fill:none;stroke:#000000;stroke-width:0.25;stroke-miterlimit:10;" x1="-24" x2="-24" y1="160" y2="-32"/>
              <line style="fill:none;stroke:#000000;stroke-width:0.25;stroke-miterlimit:10;" x1="-20" x2="-20" y1="160" y2="-32"/>
              <line style="fill:none;stroke:#000000;stroke-width:0.25;stroke-miterlimit:10;" x1="-16" x2="-16" y1="160" y2="-32"/>
              <line style="fill:none;stroke:#000000;stroke-width:0.25;stroke-miterlimit:10;" x1="-12" x2="-12" y1="160" y2="-32"/>
              <line style="fill:none;stroke:#000000;stroke-width:0.25;stroke-miterlimit:10;" x1="-8" x2="-8" y1="160" y2="-32"/>
              <line style="fill:none;stroke:#000000;stroke-width:0.25;stroke-miterlimit:10;" x1="-4" x2="-4" y1="160" y2="-32"/>
              <line style="fill:none;stroke:#000000;stroke-width:0.25;stroke-miterlimit:10;" x1="0" x2="0" y1="160" y2="-32"/>
              <line style="fill:none;stroke:#000000;stroke-width:0.25;stroke-miterlimit:10;" x1="4" x2="4" y1="160" y2="-32"/>
              <line style="fill:none;stroke:#000000;stroke-width:0.25;stroke-miterlimit:10;" x1="8" x2="8" y1="160" y2="-32"/>
              <line style="fill:none;stroke:#000000;stroke-width:0.25;stroke-miterlimit:10;" x1="12" x2="12" y1="160" y2="-32"/>
              <line style="fill:none;stroke:#000000;stroke-width:0.25;stroke-miterlimit:10;" x1="16" x2="16" y1="160" y2="-32"/>
              <line style="fill:none;stroke:#000000;stroke-width:0.25;stroke-miterlimit:10;" x1="20" x2="20" y1="160" y2="-32"/>
              <line style="fill:none;stroke:#000000;stroke-width:0.25;stroke-miterlimit:10;" x1="24" x2="24" y1="160" y2="-32"/>
              <line style="fill:none;stroke:#000000;stroke-width:0.25;stroke-miterlimit:10;" x1="28" x2="28" y1="160" y2="-32"/>
              <line style="fill:none;stroke:#000000;stroke-width:0.25;stroke-miterlimit:10;" x1="32" x2="32" y1="160" y2="-32"/>
              <line style="fill:none;stroke:#000000;stroke-width:0.25;stroke-miterlimit:10;" x1="36" x2="36" y1="160" y2="-32"/>
              <line style="fill:none;stroke:#000000;stroke-width:0.25;stroke-miterlimit:10;" x1="40" x2="40" y1="160" y2="-32"/>
              <line style="fill:none;stroke:#000000;stroke-width:0.25;stroke-miterlimit:10;" x1="44" x2="44" y1="160" y2="-32"/>
              <line style="fill:none;stroke:#000000;stroke-width:0.25;stroke-miterlimit:10;" x1="48" x2="48" y1="160" y2="-32"/>
              <line style="fill:none;stroke:#000000;stroke-width:0.25;stroke-miterlimit:10;" x1="52" x2="52" y1="160" y2="-32"/>
              <line style="fill:none;stroke:#000000;stroke-width:0.25;stroke-miterlimit:10;" x1="56" x2="56" y1="160" y2="-32"/>
              <line style="fill:none;stroke:#000000;stroke-width:0.25;stroke-miterlimit:10;" x1="60" x2="60" y1="160" y2="-32"/>
              <line style="fill:none;stroke:#000000;stroke-width:0.25;stroke-miterlimit:10;" x1="64" x2="64" y1="160" y2="-32"/>
              <line style="fill:none;stroke:#000000;stroke-width:0.25;stroke-miterlimit:10;" x1="68" x2="68" y1="160" y2="-32"/>
              <line style="fill:none;stroke:#000000;stroke-width:0.25;stroke-miterlimit:10;" x1="72" x2="72" y1="160" y2="-32"/>
              <line style="fill:none;stroke:#000000;stroke-width:0.25;stroke-miterlimit:10;" x1="76" x2="76" y1="160" y2="-32"/>
              <line style="fill:none;stroke:#000000;stroke-width:0.25;stroke-miterlimit:10;" x1="80" x2="80" y1="160" y2="-32"/>
              <line style="fill:none;stroke:#000000;stroke-width:0.25;stroke-miterlimit:10;" x1="84" x2="84" y1="160" y2="-32"/>
              <line style="fill:none;stroke:#000000;stroke-width:0.25;stroke-miterlimit:10;" x1="88" x2="88" y1="160" y2="-32"/>
              <line style="fill:none;stroke:#000000;stroke-width:0.25;stroke-miterlimit:10;" x1="92" x2="92" y1="160" y2="-32"/>
              <line style="fill:none;stroke:#000000;stroke-width:0.25;stroke-miterlimit:10;" x1="96" x2="96" y1="160" y2="-32"/>
              <line style="fill:none;stroke:#000000;stroke-width:0.25;stroke-miterlimit:10;" x1="100" x2="100" y1="160" y2="-32"/>
              <line style="fill:none;stroke:#000000;stroke-width:0.25;stroke-miterlimit:10;" x1="104" x2="104" y1="160" y2="-32"/>
              <line style="fill:none;stroke:#000000;stroke-width:0.25;stroke-miterlimit:10;" x1="108" x2="108" y1="160" y2="-32"/>
              <line style="fill:none;stroke:#000000;stroke-width:0.25;stroke-miterlimit:10;" x1="112" x2="112" y1="160" y2="-32"/>
              <line style="fill:none;stroke:#000000;stroke-width:0.25;stroke-miterlimit:10;" x1="116" x2="116" y1="160" y2="-32"/>
              <line style="fill:none;stroke:#000000;stroke-width:0.25;stroke-miterlimit:10;" x1="120" x2="120" y1="160" y2="-32"/>
              <line style="fill:none;stroke:#000000;stroke-width:0.25;stroke-miterlimit:10;" x1="124" x2="124" y1="160" y2="-32"/>
              <line style="fill:none;stroke:#000000;stroke-width:0.25;stroke-miterlimit:10;" x1="128" x2="128" y1="160" y2="-32"/>
              <line style="fill:none;stroke:#000000;stroke-width:0.25;stroke-miterlimit:10;" x1="132" x2="132" y1="160" y2="-32"/>
              <line style="fill:none;stroke:#000000;stroke-width:0.25;stroke-miterlimit:10;" x1="136" x2="136" y1="160" y2="-32"/>
              <line style="fill:none;stroke:#000000;stroke-width:0.25;stroke-miterlimit:10;" x1="137" x2="137" y1="166.05" y2="-25.95"/>
              <line style="fill:none;stroke:#000000;stroke-width:0.25;stroke-miterlimit:10;" x1="144" x2="144" y1="160" y2="-32"/>
              <line style="fill:none;stroke:#000000;stroke-width:0.25;stroke-miterlimit:10;" x1="148" x2="148" y1="160" y2="-32"/>
              <line style="fill:none;stroke:#000000;stroke-width:0.25;stroke-miterlimit:10;" x1="152" x2="152" y1="160" y2="-32"/>
              <line style="fill:none;stroke:#000000;stroke-width:0.25;stroke-miterlimit:10;" x1="156" x2="156" y1="160" y2="-32"/>
            </g>
            <g>
              <line style="fill:none;stroke:#000000;stroke-width:0.25;stroke-miterlimit:10;" x1="-32" x2="160" y1="-28" y2="-28"/>
              <line style="fill:none;stroke:#000000;stroke-width:0.25;stroke-miterlimit:10;" x1="-32" x2="160" y1="-24" y2="-24"/>
              <line style="fill:none;stroke:#000000;stroke-width:0.25;stroke-miterlimit:10;" x1="-32" x2="160" y1="-20" y2="-20"/>
              <line style="fill:none;stroke:#000000;stroke-width:0.25;stroke-miterlimit:10;" x1="-32" x2="160" y1="-16" y2="-16"/>
              <line style="fill:none;stroke:#000000;stroke-width:0.25;stroke-miterlimit:10;" x1="-32" x2="160" y1="-12" y2="-12"/>
              <line style="fill:none;stroke:#000000;stroke-width:0.25;stroke-miterlimit:10;" x1="-32" x2="160" y1="-8" y2="-8"/>
              <line style="fill:none;stroke:#000000;stroke-width:0.25;stroke-miterlimit:10;" x1="-32" x2="160" y1="-4" y2="-4"/>
              <line style="fill:none;stroke:#000000;stroke-width:0.25;stroke-miterlimit:10;" x1="-32" x2="160" y1="0" y2="0"/>
              <line style="fill:none;stroke:#000000;stroke-width:0.25;stroke-miterlimit:10;" x1="-32" x2="160" y1="4" y2="4"/>
              <line style="fill:none;stroke:#000000;stroke-width:0.25;stroke-miterlimit:10;" x1="-32" x2="160" y1="8" y2="8"/>
              <line style="fill:none;stroke:#000000;stroke-width:0.25;stroke-miterlimit:10;" x1="-32" x2="160" y1="12" y2="12"/>
              <line style="fill:none;stroke:#000000;stroke-width:0.25;stroke-miterlimit:10;" x1="-32" x2="160" y1="16" y2="16"/>
              <line style="fill:none;stroke:#000000;stroke-width:0.25;stroke-miterlimit:10;" x1="-32" x2="160" y1="20" y2="20"/>
              <line style="fill:none;stroke:#000000;stroke-width:0.25;stroke-miterlimit:10;" x1="-32" x2="160" y1="24" y2="24"/>
              <line style="fill:none;stroke:#000000;stroke-width:0.25;stroke-miterlimit:10;" x1="-32" x2="160" y1="28" y2="28"/>
              <line style="fill:none;stroke:#000000;stroke-width:0.25;stroke-miterlimit:10;" x1="-32" x2="160" y1="32" y2="32"/>
              <line style="fill:none;stroke:#000000;stroke-width:0.25;stroke-miterlimit:10;" x1="-32" x2="160" y1="36" y2="36"/>
              <line style="fill:none;stroke:#000000;stroke-width:0.25;stroke-miterlimit:10;" x1="-32" x2="160" y1="40" y2="40"/>
              <line style="fill:none;stroke:#000000;stroke-width:0.25;stroke-miterlimit:10;" x1="-32" x2="160" y1="44" y2="44"/>
              <line style="fill:none;stroke:#000000;stroke-width:0.25;stroke-miterlimit:10;" x1="-32" x2="160" y1="48" y2="48"/>
              <line style="fill:none;stroke:#000000;stroke-width:0.25;stroke-miterlimit:10;" x1="-32" x2="160" y1="52" y2="52"/>
              <line style="fill:none;stroke:#000000;stroke-width:0.25;stroke-miterlimit:10;" x1="-32" x2="160" y1="56" y2="56"/>
              <line style="fill:none;stroke:#000000;stroke-width:0.25;stroke-miterlimit:10;" x1="-32" x2="160" y1="60" y2="60"/>
              <line style="fill:none;stroke:#000000;stroke-width:0.25;stroke-miterlimit:10;" x1="-32" x2="160" y1="64" y2="64"/>
              <line style="fill:none;stroke:#000000;stroke-width:0.25;stroke-miterlimit:10;" x1="-32" x2="160" y1="68" y2="68"/>
              <line style="fill:none;stroke:#000000;stroke-width:0.25;stroke-miterlimit:10;" x1="-32" x2="160" y1="72" y2="72"/>
              <line style="fill:none;stroke:#000000;stroke-width:0.25;stroke-miterlimit:10;" x1="-32" x2="160" y1="76" y2="76"/>
              <line style="fill:none;stroke:#000000;stroke-width:0.25;stroke-miterlimit:10;" x1="-32" x2="160" y1="80" y2="80"/>
              <line style="fill:none;stroke:#000000;stroke-width:0.25;stroke-miterlimit:10;" x1="-32" x2="160" y1="84" y2="84"/>
              <line style="fill:none;stroke:#000000;stroke-width:0.25;stroke-miterlimit:10;" x1="-32" x2="160" y1="88" y2="88"/>
              <line style="fill:none;stroke:#000000;stroke-width:0.25;stroke-miterlimit:10;" x1="-32" x2="160" y1="92" y2="92"/>
              <line style="fill:none;stroke:#000000;stroke-width:0.25;stroke-miterlimit:10;" x1="-32" x2="160" y1="96" y2="96"/>
              <line style="fill:none;stroke:#000000;stroke-width:0.25;stroke-miterlimit:10;" x1="-32" x2="160" y1="100" y2="100"/>
              <line style="fill:none;stroke:#000000;stroke-width:0.25;stroke-miterlimit:10;" x1="-32" x2="160" y1="104" y2="104"/>
              <line style="fill:none;stroke:#000000;stroke-width:0.25;stroke-miterlimit:10;" x1="-32" x2="160" y1="108" y2="108"/>
              <line style="fill:none;stroke:#000000;stroke-width:0.25;stroke-miterlimit:10;" x1="-32" x2="160" y1="112" y2="112"/>
              <line style="fill:none;stroke:#000000;stroke-width:0.25;stroke-miterlimit:10;" x1="-32" x2="160" y1="116" y2="116"/>
              <line style="fill:none;stroke:#000000;stroke-width:0.25;stroke-miterlimit:10;" x1="-32" x2="160" y1="120" y2="120"/>
              <line style="fill:none;stroke:#000000;stroke-width:0.25;stroke-miterlimit:10;" x1="-32" x2="160" y1="124" y2="124"/>
              <line style="fill:none;stroke:#000000;stroke-width:0.25;stroke-miterlimit:10;" x1="-32" x2="160" y1="128" y2="128"/>
              <line style="fill:none;stroke:#000000;stroke-width:0.25;stroke-miterlimit:10;" x1="-32" x2="160" y1="132" y2="132"/>
              <line style="fill:none;stroke:#000000;stroke-width:0.25;stroke-miterlimit:10;" x1="-32" x2="160" y1="136" y2="136"/>
              <line style="fill:none;stroke:#000000;stroke-width:0.25;stroke-miterlimit:10;" x1="-32" x2="160" y1="140" y2="140"/>
              <line style="fill:none;stroke:#000000;stroke-width:0.25;stroke-miterlimit:10;" x1="-32" x2="160" y1="144" y2="144"/>
              <line style="fill:none;stroke:#000000;stroke-width:0.25;stroke-miterlimit:10;" x1="-32" x2="160" y1="148" y2="148"/>
              <line style="fill:none;stroke:#000000;stroke-width:0.25;stroke-miterlimit:10;" x1="-32" x2="160" y1="152" y2="152"/>
              <line style="fill:none;stroke:#000000;stroke-width:0.25;stroke-miterlimit:10;" x1="-32" x2="160" y1="156" y2="156"/>
            </g>
            <path d="M159.75-31.75v191.5h-191.5v-191.5H159.75 M160-32H-32v192h192V-32L160-32z"/>
          </g>
        </g>
        <g>
          <rect height="128" style="opacity:0.3;fill:#F44336;" width="4"/>
          <rect height="128" style="opacity:0.3;fill:#F44336;" width="4" x="124"/>
          <rect height="120" style="opacity:0.3;fill:#F44336;" transform="matrix(-1.836970e-16 1 -1 -1.836970e-16 66 -62)" width="4" x="62" y="-58"/>
          <rect height="120" style="opacity:0.3;fill:#F44336;" transform="matrix(-1.836970e-16 1 -1 -1.836970e-16 190 62)" width="4" x="62" y="66"/>
        </g>
      </g>
    </g>
  </g>
</svg>
